build/img/logo-menu.svg

<svg width="158" height="49" viewBox="0 0 158 49" preserveAspectRatio="none" fill="none" xmlns="http://www.w3.org/2000/svg">
<path fill="currentColor" stroke="none" d="M1.45508 44V29.9082H6.97266C8.18359 29.9082 9.16016 30.2305 9.90234 30.875C10.6445 31.5195 11.0156 32.3691 11.0156 33.4238C11.0156 34.1595 10.7812 34.8236 10.3125 35.416C9.83724 36.015 9.26107 36.3763 8.58398 36.5V36.5781C9.54102 36.7018 10.306 37.0762 10.8789 37.7012C11.4453 38.3262 11.7285 39.1074 11.7285 40.0449C11.7285 41.2884 11.3086 42.2585 10.4688 42.9551C9.6224 43.6517 8.45052 44 6.95312 44H1.45508ZM3.21289 35.9824H6.02539C7.06706 35.9824 7.86133 35.7806 8.4082 35.377C8.96159 34.9733 9.23828 34.3906 9.23828 33.6289C9.23828 32.9323 9.00716 32.3952 8.54492 32.0176C8.08268 31.6465 7.42513 31.4609 6.57227 31.4609H3.21289V35.9824ZM6.68945 42.4473C8.8444 42.4473 9.92188 41.6172 9.92188 39.957C9.92188 38.3164 8.78906 37.4961 6.52344 37.4961H3.21289V42.4473H6.68945ZM23.8465 44H15.116V29.9082H23.8465V31.4902H16.8738V36.0117H23.4852V37.5742H16.8738V42.418H23.8465V44ZM33.3668 44.2344C31.4202 44.2344 29.8772 43.5768 28.7379 42.2617C27.5921 40.9531 27.0191 39.1823 27.0191 36.9492C27.0191 34.7357 27.5953 32.9714 28.7477 31.6562C29.9 30.3346 31.4397 29.6738 33.3668 29.6738C34.8642 29.6738 36.1435 30.084 37.2047 30.9043C38.2594 31.7181 38.9169 32.8021 39.1773 34.1562H37.3805C37.1266 33.2839 36.635 32.5905 35.9059 32.0762C35.1767 31.5553 34.3303 31.2949 33.3668 31.2949C31.9931 31.2949 30.8928 31.8092 30.066 32.8379C29.2392 33.8665 28.8258 35.237 28.8258 36.9492C28.8258 38.681 29.2359 40.0579 30.0562 41.0801C30.8766 42.1022 31.9833 42.6133 33.3766 42.6133C34.3727 42.6133 35.2223 42.3919 35.9254 41.9492C36.6155 41.5065 37.1005 40.8815 37.3805 40.0742H39.1773C38.8323 41.4154 38.1585 42.444 37.1559 43.1602C36.1533 43.8763 34.8902 44.2344 33.3668 44.2344ZM52.1449 44V37.584H44.4105V44H42.6527V29.9082H44.4105V36.002H52.1449V29.9082H53.9027V44H52.1449ZM65.7766 39.9668H60.1711L58.7551 44H56.9094L62.1047 29.9082H63.843L69.0383 44H67.1926L65.7766 39.9668ZM60.6887 38.4727H65.259L63.0031 32.0469H62.9445L60.6887 38.4727ZM78.0301 44V29.9082H83.5477C84.7586 29.9082 85.7352 30.2305 86.4773 30.875C87.2195 31.5195 87.5906 32.3691 87.5906 33.4238C87.5906 34.1595 87.3562 34.8236 86.8875 35.416C86.4122 36.015 85.8361 36.3763 85.159 36.5V36.5781C86.116 36.7018 86.881 37.0762 87.4539 37.7012C88.0203 38.3262 88.3035 39.1074 88.3035 40.0449C88.3035 41.2884 87.8836 42.2585 87.0437 42.9551C86.1974 43.6517 85.0255 44 83.5281 44H78.0301ZM79.7879 35.9824H82.6004C83.6421 35.9824 84.4363 35.7806 84.9832 35.377C85.5366 34.9733 85.8133 34.3906 85.8133 33.6289C85.8133 32.9323 85.5822 32.3952 85.1199 32.0176C84.6577 31.6465 84.0001 31.4609 83.1473 31.4609H79.7879V35.9824ZM83.2645 42.4473C85.4194 42.4473 86.4969 41.6172 86.4969 39.957C86.4969 38.3164 85.3641 37.4961 83.0984 37.4961H79.7879V42.4473H83.2645ZM97.4918 44.2344C95.5452 44.2344 94.0022 43.5768 92.8629 42.2617C91.7171 40.9531 91.1441 39.1823 91.1441 36.9492C91.1441 34.7357 91.7203 32.9714 92.8727 31.6562C94.025 30.3346 95.5647 29.6738 97.4918 29.6738C98.9892 29.6738 100.268 30.084 101.33 30.9043C102.384 31.7181 103.042 32.8021 103.302 34.1562H101.505C101.252 33.2839 100.76 32.5905 100.031 32.0762C99.3017 31.5553 98.4553 31.2949 97.4918 31.2949C96.1181 31.2949 95.0178 31.8092 94.191 32.8379C93.3642 33.8665 92.9508 35.237 92.9508 36.9492C92.9508 38.681 93.3609 40.0579 94.1813 41.0801C95.0016 42.1022 96.1083 42.6133 97.5016 42.6133C98.4977 42.6133 99.3473 42.3919 100.05 41.9492C100.74 41.5065 101.226 40.8815 101.505 40.0742H103.302C102.957 41.4154 102.283 42.444 101.281 43.1602C100.278 43.8763 99.0152 44.2344 97.4918 44.2344ZM115.508 44H106.778V29.9082H115.508V31.4902H108.536V36.0117H115.147V37.5742H108.536V42.418H115.508V44ZM119.228 44V29.9082H127.587V31.5098H120.995V44H119.228ZM133.152 38.8145C133.048 40.4941 132.719 41.6693 132.166 42.3398V42.418H139.002V31.4902H133.611L133.152 38.8145ZM130.574 46.7832H128.943V42.418H129.988C130.887 41.9427 131.391 40.7285 131.502 38.7754L132.039 29.9082H140.76V42.418H142.518V46.7832H140.887V44H130.574V46.7832ZM153.512 39.9668H147.907L146.491 44H144.645L149.841 29.9082H151.579L156.774 44H154.929L153.512 39.9668ZM148.425 38.4727H152.995L150.739 32.0469H150.68L148.425 38.4727Z"/>
<path d="M82.8896 9C82.8896 11.3081 81.6061 13.4441 80.2576 15.0414C79.5896 15.8327 78.9203 16.4743 78.418 16.918C78.2079 17.1036 78.0276 17.254 77.8897 17.3656C77.7517 17.254 77.5714 17.1036 77.3613 16.918C76.859 16.4743 76.1897 15.8327 75.5217 15.0414C74.1732 13.4441 72.8896 11.3081 72.8896 9C72.8896 6.69191 74.1732 4.55589 75.5217 2.95858C76.1897 2.16732 76.859 1.52568 77.3613 1.08202C77.5714 0.896438 77.7517 0.746034 77.8896 0.634354C78.0276 0.746034 78.2079 0.896438 78.418 1.08202C78.9203 1.52568 79.5896 2.16732 80.2576 2.95858C81.6061 4.55589 82.8896 6.69191 82.8896 9Z"/>
<path d="M75.7698 8.75694C77.4448 10.4319 78.0984 12.8714 78.3177 14.9582C78.4264 15.993 78.4261 16.9203 78.3986 17.5887C78.3874 17.8586 78.3719 18.0856 78.3574 18.2595C78.1835 18.274 77.9565 18.2896 77.6866 18.3007C77.0182 18.3283 76.0909 18.3285 75.0561 18.2198C72.9693 18.0005 70.5297 17.3469 68.8548 15.672C67.1799 13.997 66.5262 11.5575 66.307 9.47068C66.1982 8.4359 66.1985 7.5086 66.2261 6.84021C66.2372 6.57029 66.2528 6.34332 66.2672 6.1694C66.4412 6.15491 66.6681 6.13935 66.9381 6.12821C67.6065 6.10064 68.5337 6.10039 69.5685 6.20911C71.6553 6.42838 74.0949 7.08201 75.7698 8.75694Z"/>
<path d="M81.5364 8.75694C79.8614 10.4319 79.2078 12.8714 78.9886 14.9582C78.8798 15.993 78.8801 16.9203 78.9077 17.5887C78.9188 17.8586 78.9343 18.0856 78.9488 18.2595C79.1228 18.274 79.3497 18.2896 79.6196 18.3007C80.288 18.3283 81.2153 18.3285 82.2501 18.2198C84.3369 18.0005 86.7765 17.3469 88.4514 15.672C90.1264 13.997 90.78 11.5575 90.9992 9.47068C91.108 8.4359 91.1077 7.5086 91.0801 6.84021C91.069 6.57029 91.0535 6.34332 91.039 6.1694C90.865 6.15491 90.6381 6.13935 90.3682 6.12821C89.6998 6.10064 88.7725 6.10039 87.7377 6.20911C85.6509 6.42838 83.2113 7.08201 81.5364 8.75694Z"/>
<path d="M53.5 12H1.5"/>
<path d="M155 12L103 12"/>
</svg>

<svg width="158" height="49" viewBox="0 0 158 49" preserveAspectRatio="none" fill="none" xmlns="http://www.w3.org/2000/svg"><path fill="currentColor" d="M1.455 44V29.908h5.518c1.21 0 2.187.322 2.93.967.742.645 1.113 1.494 1.113 2.549 0 .736-.235 1.4-.704 1.992-.475.599-1.05.96-1.728 1.084v.078c.957.124 1.722.498 2.295 1.123.566.625.85 1.406.85 2.344 0 1.243-.42 2.213-1.26 2.91C9.622 43.652 8.45 44 6.953 44H1.455zm1.758-8.018h2.812c1.042 0 1.836-.201 2.383-.605.554-.404.83-.986.83-1.748 0-.697-.23-1.234-.693-1.611-.462-.372-1.12-.557-1.973-.557h-3.36v4.521zm3.476 6.465c2.155 0 3.233-.83 3.233-2.49 0-1.64-1.133-2.46-3.399-2.46h-3.31v4.95h3.476zM23.846 44h-8.73V29.908h8.73v1.582h-6.972v4.522h6.611v1.562h-6.611v4.844h6.973V44zm9.52.234c-1.946 0-3.489-.657-4.628-1.972-1.146-1.309-1.719-3.08-1.719-5.313 0-2.213.576-3.978 1.729-5.293 1.152-1.321 2.692-1.982 4.619-1.982 1.497 0 2.777.41 3.838 1.23 1.054.814 1.712 1.898 1.972 3.252H37.38a3.755 3.755 0 00-1.474-2.08c-.73-.52-1.576-.781-2.54-.781-1.373 0-2.473.514-3.3 1.543s-1.24 2.399-1.24 4.111c0 1.732.41 3.109 1.23 4.131.82 1.022 1.927 1.533 3.32 1.533.997 0 1.846-.221 2.55-.664.69-.442 1.174-1.067 1.454-1.875h1.797c-.345 1.341-1.019 2.37-2.021 3.086-1.003.716-2.266 1.074-3.79 1.074zM52.146 44v-6.416H44.41V44h-1.757V29.908h1.758v6.094h7.734v-6.094h1.758V44h-1.758zm13.632-4.033H60.17L58.755 44H56.91l5.196-14.092h1.738L69.038 44h-1.845l-1.416-4.033zm-5.088-1.494h4.57l-2.256-6.426h-.059l-2.255 6.426zM78.03 44V29.908h5.518c1.21 0 2.187.322 2.93.967.742.645 1.113 1.494 1.113 2.549 0 .736-.235 1.4-.703 1.992-.476.599-1.052.96-1.729 1.084v.078c.957.124 1.722.498 2.295 1.123.566.625.85 1.406.85 2.344 0 1.243-.42 2.213-1.26 2.91-.847.697-2.019 1.045-3.516 1.045H78.03zm1.758-8.018H82.6c1.042 0 1.836-.201 2.383-.605.554-.404.83-.986.83-1.748 0-.697-.23-1.234-.693-1.611-.462-.372-1.12-.557-1.973-.557h-3.36v4.521zm3.477 6.465c2.154 0 3.232-.83 3.232-2.49 0-1.64-1.133-2.46-3.399-2.46h-3.31v4.95h3.477zm14.227 1.787c-1.947 0-3.49-.657-4.63-1.972-1.145-1.309-1.718-3.08-1.718-5.313 0-2.213.576-3.978 1.729-5.293 1.152-1.321 2.692-1.982 4.619-1.982 1.497 0 2.776.41 3.838 1.23 1.054.814 1.712 1.898 1.972 3.252h-1.797a3.75 3.75 0 00-1.474-2.08c-.73-.52-1.576-.781-2.54-.781-1.373 0-2.473.514-3.3 1.543s-1.24 2.399-1.24 4.111c0 1.732.41 3.109 1.23 4.131.82 1.022 1.927 1.533 3.32 1.533.997 0 1.846-.221 2.549-.664.69-.442 1.176-1.067 1.455-1.875h1.797c-.345 1.341-1.019 2.37-2.021 3.086-1.003.716-2.266 1.074-3.79 1.074zM115.508 44h-8.73V29.908h8.73v1.582h-6.972v4.522h6.611v1.562h-6.611v4.844h6.972V44zm3.72 0V29.908h8.359v1.602h-6.592V44h-1.767zm13.924-5.185c-.104 1.68-.433 2.854-.986 3.525v.078h6.836V31.49h-5.391l-.459 7.325zm-2.578 7.968h-1.631v-4.365h1.045c.899-.475 1.403-1.69 1.514-3.643l.537-8.867h8.721v12.51h1.758v4.365h-1.631V44h-10.313v2.783zm22.938-6.816h-5.605L146.491 44h-1.846l5.196-14.092h1.738L156.774 44h-1.845l-1.417-4.033zm-5.087-1.494h4.57l-2.256-6.426h-.059l-2.255 6.426z"/><path d="M82.89 9c0 2.308-1.284 4.444-2.632 6.041a18.24 18.24 0 01-2.368 2.325 18.24 18.24 0 01-2.368-2.324C74.173 13.443 72.89 11.307 72.89 9s1.283-4.444 2.632-6.041A18.239 18.239 0 0177.89.634a18.239 18.239 0 012.368 2.324C81.606 4.557 82.89 6.693 82.89 9z"/><path d="M75.77 8.757c1.675 1.675 2.328 4.114 2.548 6.201a18.306 18.306 0 01.04 3.301 18.292 18.292 0 01-3.301-.04c-2.088-.218-4.527-.872-6.202-2.547-1.675-1.675-2.329-4.115-2.548-6.201a18.277 18.277 0 01-.04-3.302 18.292 18.292 0 013.301.04c2.087.22 4.527.873 6.202 2.548zm5.766 0c-1.675 1.675-2.328 4.114-2.547 6.201a18.277 18.277 0 00-.04 3.301 18.292 18.292 0 003.301-.04c2.087-.218 4.526-.872 6.201-2.547 1.675-1.675 2.329-4.115 2.548-6.201a18.277 18.277 0 00.04-3.302 18.293 18.293 0 00-3.301.04c-2.087.22-4.527.873-6.202 2.548zM53.5 12h-52M155 12h-52"/></svg>
